X: 1
T: Trip To Moscow
C: Ian Ball
O: arr. Andy Reiner / Rustic Roots
R: march
S: https://www.patreon.com/posts/rustic-roots-27198819
Z: 2020 John Chambers <jc:trillian.mit.edu>
M: C|
L: 1/8
K: Gdor
"^A"|:\
"Gm"d3d c2c2 | d2d2 G3A | B2B2 A2G2 | "C"(Bc3) c4 ||\
"Gm"d3d c2c2 | d2d2 G3A | B2B2 A2G2 |    (FG3) G4 :|
"B"|:\
"Gm"G2(AB) A2G2 | (F2 G2) D4 | G2(AB) A2G2 | "C"(Bc3) c4 ||\
"Gm"G2(AB) A2G2 | (F2_E2) D4 | G2(AB) A2G2 |    (FG3) G4 :|
